X:203
T:O'Neill's favorite
M:4/4
L:1/8
R:Hornpipe
Z:
K:D
de|"D"{fg}fefg afge|fdec dBAG|{FG}F2FE FGAB|"C"(3=cBA dc "A"A2de|\
"D"{fg}fefg afge|fdec dBAG|{FG}F2FD "G"GB"A"AG|1\
"D"{FG}F2D2 D2de:|2 "D"{FG}F2D2 D2DE|:\
"F"F2FE FGAB|(3=cBA dB cBAG|"D"A2de {fg}fded|"C"{=cd}cAdc "A"A2de|\
"D"fefg afge|fdec dBAG|{FG}F2FD "G"GB"A"AG|1\
"D"{FG}F2D2 D2DE:|2 "D"{FG}F2D2D2||
